icons/solid/applications-add.svg

<svg width="24" height="24" viewBox="0 0 24 24" fill="none" xmlns="http://www.w3.org/2000/svg">
<path fill-rule="evenodd" clip-rule="evenodd" d="M3 6C3 4.34315 4.34315 3 6 3H8C9.65685 3 11 4.34315 11 6V8C11 9.65685 9.65685 11 8 11H6C4.34315 11 3 9.65685 3 8V6ZM3 16C3 14.3431 4.34315 13 6 13H8C9.65685 13 11 14.3431 11 16V18C11 19.6569 9.65685 21 8 21H6C4.34315 21 3 19.6569 3 18V16ZM13 6C13 4.34315 14.3431 3 16 3H18C19.6569 3 21 4.34315 21 6V8C21 9.65685 19.6569 11 18 11H16C14.3431 11 13 9.65685 13 8V6ZM18 14C18 13.4477 17.5523 13 17 13C16.4477 13 16 13.4477 16 14V16H14C13.4477 16 13 16.4477 13 17C13 17.5523 13.4477 18 14 18H16V20C16 20.5523 16.4477 21 17 21C17.5523 21 18 20.5523 18 20V18H20C20.5523 18 21 17.5523 21 17C21 16.4477 20.5523 16 20 16H18V14Z" fill="currentColor"/>
</svg>

<svg width="24" height="24" fill="none" xmlns="http://www.w3.org/2000/svg"><path fill-rule="evenodd" clip-rule="evenodd" d="M3 6a3 3 0 013-3h2a3 3 0 013 3v2a3 3 0 01-3 3H6a3 3 0 01-3-3V6zm0 10a3 3 0 013-3h2a3 3 0 013 3v2a3 3 0 01-3 3H6a3 3 0 01-3-3v-2zM13 6a3 3 0 013-3h2a3 3 0 013 3v2a3 3 0 01-3 3h-2a3 3 0 01-3-3V6zm5 8a1 1 0 10-2 0v2h-2a1 1 0 100 2h2v2a1 1 0 102 0v-2h2a1 1 0 100-2h-2v-2z" fill="currentColor"/></svg>
